X:1
T:Jock of Hazeldean
B: J Greig, Scots Minstrelsie, Vol 1, 1893
Q:1/4=102     %Tempo
M:2/4     %Meter
L:1/16     %
K:Eb
e2 |B2 G2 {G}F3 E |E2 E2 B,2 C2 |E2 E2 A3 G | (G3A/G/F2)
w:"Why weep ye by the tide, la-dye? Why weep ye by the tide?___
 e2 |B2 G2 F3 E |E2 G2 B,2 C2 |E2 G2 F3 E | E6
w: I'll wed ye to my young-est son, And ye shall be his bride.
G2 |A3 G A2 B2 |c2 B2 e3 c |B2 G2 (3:2F2G2 c2 | c6
w:And ye shall be his bride la-dye, Sae come-ly to_ be seen."
e2 |B2 G2 F3 E |E2 (FG) B,2 C2 |E2 G2 {G}F3 E | E6 z2 |]
w:But aye she loot the tears doun_ fa', For Jock o' Ha-zel-dean.
W:"Why weep ye by the tide, layde?
W:Why weep ye by the tide?
W:I'll wed ye to my youngest son
W:And ye shall be his bride.
W:And ye shall be his bride ladye.
W:Sae comely to be seen."
W:But aye she loot the tears doon fa',
W:For Jock o' Hazeldean.
W:
W:"Now let this wilfu' grief be done
W:And dry that cheek sae pale,
W:Young Frank is chief of Errington,
W:And Lord of Langley-dale.
W:His step is first in peaceful ha',
W:His sword in battle keen."
W:But aye she loot the tears doon fa',
W:For Jock o' Hazeldean.
W:
W:"A chain of gold ye shall not lack,
W:Nor braid to bind your hair;
W:Nor mettl'd hound, nor manag'd hawk,
W:Nor palfrey fresh and fair;
W:And you, the foremost o' them a'
W:Shall ride our forest queen:" -
W:But aye she loot the tears doon fa',
W:For Jock o' Hazeldean.
W:
W:The kirk was deck'd at morning-tide,
W:The tapers glimmer'd fair;
W:The priest and bridegroom wait the bride,
W:And dame and knight are there.
W:They sought her both by bower and ha'
W:The layde was na seen!
W:She's o'er the border and awa'
W:Wi' Jock o' Hazeldean!
W:
